X:499
T:Lord Moira
T:Louden's Bonny Woods
R:Slow Strathspey
B:The Athole Collection
M:C
L:1/8
Q:1/4=140
K:F
C|F<F ~F2 A<c ~c2|~B>GA>F G>F E<C|F<F ~F2 A<c ~c2|1
d>f e/f/g/e/ ~f2 f>a:|2 d>f e/f/g/e/ f/g/a/g/ f<a||
f<f a>f g>f e<c|d<d ~f>d c>B A<F|f<f a>f g>f e<c|d>f e/f/g/e/ ~f2 f<a|
b>ga>f g>fd>f|d/c/B/A/ fA B/A/G/F/ G>A|F<F ~F2 B<d ~d2|
c>f e/f/g/e/ ~f2 f>a||
|:A>Fc>F d/c/B/A/ c>f|A<F c>F G>AB>d|A>Fc>F d/c/B/A/ c>f|
d>f e/f/g/e/ ~f2 f>a:|
f<af<a e<g ~c2|d>ef>d c>BA>F|(3fga (3fga (3efg ~c2|d>f e/f/g/e/ ~f2 f>c|
d<bc<a B<gA<f|c>BA>F G>FE>C|(3FGA (3GAB (3ABc (3Bcd|
c>f a/g/f/e/ g/f/e/d/ c/B/A/G/||

